!!!ONB: MCCC : IJB0044_06 : Extracted Monophonic Melody
!!!COM: Brahms, Johannes
!!!OPR: 8 Klavierstücke
!!!OMV: 6
!!!SCT: Op.76
!!!ODT: 1871///
**kern
*staff1
*clefG2
*k[f#c#g#]
*A:
*M2/4
12E
12e
12A
=2
12d
12D
12G#
12B
12b
12g#
=3
12a
12A
12e
12E
12e
12A
=4
12d
12D
12G#
12B
12b
12g#
=5
12a
12A
12d#
12e
12ee
12a
=6
12dd#
12a
12dd#
12g#
12dd#
12f#
=7
8ee
8cc
8cc#
8f#
=8
4a
4d#
=9
*M1/4
4e
=10
4r
=11
*M2/4
4f#
4E#
=12
4a#
4G#
=13
6cc#
6cc#
6cc#
=14
6cc#
6cc#
6cc#
=15
6cc#
6cc#
6cc#
=16
6cc#
6cc#
6cc#
=17
6cc#
6a#
6f#
=18
2r
=19
4d
12B
12b
12g#
=20
4a
12E
12e
12A
=21
4d#
12c#
12cc#
12d#
=22
4b
4e
=23
6ee
6dd
6cc#
=24
32B
32a
16b
8ee#
8ff#
8aa
=25
8a#
8b
8dd
8g#
=26
*M1/4
4a
=27
4r
=28
*M2/4
4f#
4E#
=29
4a#
4G#
=30
6cc#
6cc#
6cc#
=31
6cc#
6cc#
6cc#
=32
6cc#
6cc#
6cc#
=33
6cc#
6cc#
6cc#
=34
6cc#
6a#
6f#
=35
2r
=36
4d
12B
12b
12g#
=37
4a
12E
12e
12A
=38
4d#
12c#
12cc#
12d#
=39
4b
4e
=40
6ee
6dd
6cc#
=41
32B
32a
16b
8ee#
8ff#
8aa
=42
8a#
8b
8dd
8g#
=43
*M1/4
4a
=44
8cc#
8dd
=45
*M2/4
8cc#
8aa
8gg#
8ee#
=46
8cc#
32ee
16.dd
8cc#
8b
=47
8g#
32dd
16.cc#
8b
8g#
=48
8e#
32a
16.g#
8cc#
8dd
=49
8cc#
8aa
8gg#
8ee
=50
8cc
32gg#
16.ff#
8ee
8cc#
=51
8a
32ee
16.dd#
8cc#
8g#
=52
8a
8a
4cc#
=53
8cc#
8dd
8cc#
8dd
=54
24a[
24a]
24cc#
8aa
8gg#
8ee#
=55
8cc#
32ee
16.dd
8cc#
8b
=56
8g#
32dd
16.cc#
8b
8g#
=57
8e#
32a
16.g#
8cc#
8dd
=58
8cc#
8aa
8gg#
8ee
=59
8cc
32gg#
16.ff#
8ee
8cc#
=60
8a
32ee
16.dd#
8cc#
8g#
=61
8a
8f#
4cc#[
=62
8cc#]
8dd
8cc#
8dd
=63
24f#
24a#
24cc#
8aa
8gg
8ee
=64
8cc#
8b
8cc#
8dd
=65
8cc#
8aa
8gg
8ee
=66
8cc#
8b
8cc#
8dd
=67
8cc#
8aa
8gg
8ee#
=68
8ff#
8dd
8cc#
8b#
=69
4.cc#
8dd
=70
4.cc#
8b#
=71
4.cc#
8dd
=72
4.cc#[
8cc#]
=73
4cc#
8b
8g#
=74
2f#[
=75
8f#]
8g#
8f#
8g#
=76
2f#[
=77
8f#]
8e#
8f#
8e#
=78
2f#
=79
4r
12E
12e
12A
=80
12d
12D
12G#
12B
12b
12g#
=81
12a
12A
12e
12E
12e
12A
=82
12d
12D
12G#
12B
12b
12g#
=83
12a
12A
12d#
12e
12ee
12a
=84
6aa
6gg#
6ff#[
=85
4ff#]
4r
=86
8r
8c#
16d#
16d#
8d#
=87
4A
12E#
12e#
12G#
=88
4f#
12r
12e#
12G#
=89
4a#
12r
12g#
12c#
=90
6cc#
6cc#
6cc#
=91
6cc#
6cc#
6cc#
=92
6cc#
6cc#
6cc#
=93
6cc#
6cc#
6cc#
=94
6cc#
6a#
6f#
=95
6d
12d#[
4d#]
=96
12E
12e
12A
12d
12D
12G#
=97
12B
12b
12g#
12a
12A
12e
=98
12E
12e
12A
12d#
12D#
12A
=99
12c#
12cc#
12d#
12b
12B
12f#
=100
12e
12ee
12a#
6ee
12dd
=101
4dd
16cc#
16b
8ee#
=102
8ff#
8aa
8d
8b
=103
8dd
8g#
4a
=104
8ee
8ff#
8ee
8cc#
=105
8b
8g
4e
=106
8a
8b
8a
8f#
=107
8d
8B
4r
=108
8B
8c#
4B
=109
8B
8c#
4B
=110
8B
8c#
4d
=111
12d
6dd[
4dd]
=112
4cc#
4r
==
*-
